static/assets/head_icons_png/man/bizi/1026112.svg

<svg xmlns="http://www.w3.org/2000/svg" width="5" height="9"><g transform="translate(2.35 4.35)"><path d="M1.75 3q-.2 0-.3.1l-.15.1.1-.95q.05-.6.45-.6l.4.25.05.2.05.25-.2.5-.25.35-.15-.2" fill="#fcd1af"/><path d="M1.9 3.2l-.5.35-.45.15.35-.5.15-.1q.1-.1.3-.1l.15.2m-2.8.4l-.25-.1-.45-.25-.1-.3.05-.1h.15l.35.4.25.35" fill="#aa6e46"/><path d="M1-2.1L.95-.7v2.3L.7 3.4q-.3.4-.7.45l-.55-.5-.3-.4-.1-.05v-.4l.1-2.05-.05-2.4.05-1.6Q-.4-4.25.4-4.2q.45 0 .7.45l.15.55q-.2.45-.25 1.1" fill="#fedec1"/><radialGradient id="a" gradientUnits="userSpaceOnUse" gradientTransform="matrix(.00995 0 0 .00995 1.15 -.7)" spreadMethod="pad" cx="0" cy="0" r="819.2" fx="0" fy="0"><stop offset="0" stop-color="#f8b991"/><stop offset=".992" stop-color="#f7c4a2"/></radialGradient><path d="M.95 3.7l-.4.4q-.35.35-.65.3l-.55-.45-.25-.35-.25-.35q0-.2.5 0l-.2-.15v-.15l.3.4.55.5q.4-.05.7-.45l.25-1.8V-.7L1-2.1q.05-.65.25-1.1l.95-1.15h.05q-.8.35-.85 2.5l.1.5.05.6.05.6q0 1.05.2 1.35l.3.55.15.15-.4-.25q-.4 0-.45.6l-.1.95-.35.5" fill="url(#a)"/><radialGradient id="b" gradientUnits="userSpaceOnUse" gradientTransform="matrix(.00578 0 0 .00578 -1.1 -1.8)" spreadMethod="pad" cx="0" cy="0" r="819.2" fx="0" fy="0"><stop offset="0" stop-color="#fdd7b8"/><stop offset=".973" stop-color="#fdd9ba"/></radialGradient><path d="M-1.75 1.55l.3-.9.15-1.5v-1.3q0-.7.4-1.3l.05-.1-.05 1.6.05 2.4-.1 2.05v.25l-.3-.4-.5-.8" fill="url(#b)"/><radialGradient id="c" gradientUnits="userSpaceOnUse" gradientTransform="translate(-2.05 2.85) scale(.00122)" spreadMethod="pad" cx="0" cy="0" r="819.2" fx="0" fy="0"><stop offset="0" stop-color="#f8b991"/><stop offset=".973" stop-color="#f8c9a9"/></radialGradient><path d="M-1.25 2.35l.3.4v.15l.1.05v.15l.2.15q-.5-.2-.5 0l-.35-.4h-.15l-.05.1.1.3q-.8-.2-.75-.8-.05-.65.45-.8l.15-.1.5.8" fill="url(#c)"/><radialGradient id="d" gradientUnits="userSpaceOnUse" gradientTransform="matrix(.00061 0 0 .0026 .15 -1.7)" spreadMethod="pad" cx="0" cy="0" r="819.2" fx="0" fy="0"><stop offset="0" stop-color="#fff" stop-opacity=".714"/><stop offset=".973" stop-color="#fff" stop-opacity="0"/></radialGradient><path d="M.5-3.5l.1 1.15L.5-.4.1.95Q-.25.75-.25-1.8v-1.35l.05-.15.1-.3.3-.3.3.4" fill="url(#d)"/><radialGradient id="e" gradientUnits="userSpaceOnUse" gradientTransform="translate(.15 3.35) scale(.00154)" spreadMethod="pad" cx="0" cy="0" r="819.2" fx="0" fy="0"><stop offset="0" stop-color="#fff" stop-opacity=".663"/><stop offset=".973" stop-color="#fff" stop-opacity="0"/></radialGradient><path d="M-.65 1.55l.5.2.55-.05q.35-.05.35.75L.5 3.3l-.45.3q-.25 0-.6-.35l-.4-.75.3-.95" fill="url(#e)"/></g></svg>

<?xml version="1.0" encoding="utf-8"?>
<svg version="1.1" id="Layer_1"
xmlns="http://www.w3.org/2000/svg"
xmlns:xlink="http://www.w3.org/1999/xlink"
xmlns:author="http://www.sothink.com"
width="5px" height="9px"
xml:space="preserve">
<g id="472" transform="matrix(1, 0, 0, 1, 2.35, 4.35)">
<path style="fill:#FCD1AF;fill-opacity:1" d="M1.75,3Q1.55 3 1.45 3.1L1.3 3.2L1.4 2.25Q1.45 1.65 1.85 1.65L2.25 1.9L2.3 2.1L2.35 2.35L2.15 2.85L1.9 3.2L1.75 3" />
<path style="fill:#AA6E46;fill-opacity:1" d="M1.9,3.2L1.4 3.55L0.95 3.7L1.3 3.2L1.45 3.1Q1.55 3 1.75 3L1.9 3.2M-0.9,3.6L-1.15 3.5L-1.6 3.25L-1.7 2.95L-1.65 2.85L-1.5 2.85L-1.15 3.25L-0.9 3.6" />
<path style="fill:#FEDEC1;fill-opacity:1" d="M1,-2.1L0.95 -0.7L0.95 1.6L0.7 3.4Q0.4 3.8 0 3.85L-0.55 3.35L-0.85 2.95L-0.95 2.9L-0.95 2.75L-0.95 2.5L-0.85 0.45L-0.9 -1.95L-0.85 -3.55Q-0.4 -4.25 0.4 -4.2Q0.85 -4.2 1.1 -3.75L1.25 -3.2Q1.05 -2.75 1 -2.1" />
<radialGradient
id="RadialGradID_4087" gradientUnits="userSpaceOnUse" gradientTransform="matrix(0.00994873, 0, 0, 0.00994873, 1.15, -0.7)" spreadMethod ="pad" cx="0" cy="0" r="819.2" fx="0" fy="0" >
<stop  offset="0"  style="stop-color:#F8B991;stop-opacity:1" />
<stop  offset="0.992157"  style="stop-color:#F7C4A2;stop-opacity:1" />
</radialGradient>
<path style="fill:url(#RadialGradID_4087) " d="M0.95,3.7L0.55 4.1Q0.2 4.45 -0.1 4.4L-0.65 3.95L-0.9 3.6L-1.15 3.25Q-1.15 3.05 -0.65 3.25L-0.85 3.1L-0.85 2.95L-0.55 3.35L0 3.85Q0.4 3.8 0.7 3.4L0.95 1.6L0.95 -0.7L1 -2.1Q1.05 -2.75 1.25 -3.2L2.2 -4.35L2.25 -4.35Q1.45 -4 1.4 -1.85L1.5 -1.35L1.55 -0.75L1.6 -0.15Q1.6 0.9 1.8 1.2L2.1 1.75L2.25 1.9L1.85 1.65Q1.45 1.65 1.4 2.25L1.3 3.2L0.95 3.7" />
<radialGradient
id="RadialGradID_4088" gradientUnits="userSpaceOnUse" gradientTransform="matrix(0.00578308, 0, 0, 0.00578308, -1.1, -1.8)" spreadMethod ="pad" cx="0" cy="0" r="819.2" fx="0" fy="0" >
<stop  offset="0"  style="stop-color:#FDD7B8;stop-opacity:1" />
<stop  offset="0.972549"  style="stop-color:#FDD9BA;stop-opacity:1" />
</radialGradient>
<path style="fill:url(#RadialGradID_4088) " d="M-1.75,1.55L-1.45 0.65L-1.3 -0.85L-1.3 -2.15Q-1.3 -2.85 -0.9 -3.45L-0.85 -3.55L-0.9 -1.95L-0.85 0.45L-0.95 2.5L-0.95 2.75L-1.25 2.35L-1.75 1.55" />
<radialGradient
id="RadialGradID_4089" gradientUnits="userSpaceOnUse" gradientTransform="matrix(0.0012207, 0, 0, 0.0012207, -2.05, 2.85)" spreadMethod ="pad" cx="0" cy="0" r="819.2" fx="0" fy="0" >
<stop  offset="0"  style="stop-color:#F8B991;stop-opacity:1" />
<stop  offset="0.972549"  style="stop-color:#F8C9A9;stop-opacity:1" />
</radialGradient>
<path style="fill:url(#RadialGradID_4089) " d="M-1.25,2.35L-0.95 2.75L-0.95 2.9L-0.85 2.95L-0.85 3.1L-0.65 3.25Q-1.15 3.05 -1.15 3.25L-1.5 2.85L-1.65 2.85L-1.7 2.95L-1.6 3.25Q-2.4 3.05 -2.35 2.45Q-2.4 1.8 -1.9 1.65L-1.75 1.55L-1.25 2.35" />
<radialGradient
id="RadialGradID_4090" gradientUnits="userSpaceOnUse" gradientTransform="matrix(0.000610352, 0, 0, 0.00260925, 0.15, -1.7)" spreadMethod ="pad" cx="0" cy="0" r="819.2" fx="0" fy="0" >
<stop  offset="0"  style="stop-color:#FFFFFF;stop-opacity:0.713725" />
<stop  offset="0.972549"  style="stop-color:#FFFFFF;stop-opacity:0" />
</radialGradient>
<path style="fill:url(#RadialGradID_4090) " d="M0.5,-3.5L0.6 -2.35L0.5 -0.4L0.1 0.95Q-0.25 0.75 -0.25 -1.8L-0.25 -2.3L-0.25 -3.15L-0.2 -3.3L-0.1 -3.6L0.2 -3.9L0.5 -3.5" />
<radialGradient
id="RadialGradID_4091" gradientUnits="userSpaceOnUse" gradientTransform="matrix(0.00154114, 0, 0, 0.00154114, 0.15, 3.35)" spreadMethod ="pad" cx="0" cy="0" r="819.2" fx="0" fy="0" >
<stop  offset="0"  style="stop-color:#FFFFFF;stop-opacity:0.662745" />
<stop  offset="0.972549"  style="stop-color:#FFFFFF;stop-opacity:0" />
</radialGradient>
<path style="fill:url(#RadialGradID_4091) " d="M-0.65,1.55L-0.15 1.75L0.4 1.7Q0.75 1.65 0.75 2.45L0.5 3.3L0.05 3.6Q-0.2 3.6 -0.55 3.25L-0.95 2.5L-0.65 1.55" />
</g>
</svg>
